X: 99
T: Qiu n
L: 1/8
M: 2/4
K: F
G G G A [I:setbarnb 1]| 
c4 | 
c f c A | 
G4 | 
A2A A | 
G A G F | 
G FD2 | 
C4 | 
D2F2 | 
D2F2 | 
D2C2 | 
D4 | 
c c c d | 
c2A G | 
A GF2 | 
G3A | 
G FD2 | 
C4 |]

@@@ Tune index: 8973
